logos/storyblok.svg

<?xml version="1.0" encoding="UTF-8"?>
<svg width="512px" height="109px" viewBox="0 0 512 109" version="1.1" xmlns="http://www.w3.org/2000/svg" preserveAspectRatio="xMidYMid">
    <title>storyblok</title>
    <g>
        <path d="M148.732233,75.6472379 C145.002497,75.6623951 141.293987,75.0852208 137.745361,73.936993 C134.341802,72.83252 131.214286,71.0118585 128.573257,68.5975176 L133.372233,60.4802047 C135.815439,62.1655816 138.424479,63.5968764 141.158695,64.751785 C143.44643,65.7476945 145.916115,66.2574715 148.411209,66.2488036 C150.1146,66.2488036 151.503519,65.9277799 152.463314,65.2857326 C153.423109,64.751785 153.848957,63.7919898 153.848957,62.6159949 C153.848957,61.5480998 153.318285,60.4802047 152.037466,59.8381574 C150.0332,58.8762867 147.920427,58.1591977 145.744747,57.7023672 L138.276033,55.2455534 C136.251619,54.3905822 134.653052,53.535611 133.372233,52.5758157 C132.1723,51.7806928 131.213698,50.6713893 130.600947,49.3688548 C130.021095,48.0203341 129.730933,46.5650622 129.749251,45.0972745 C129.686075,40.8944558 131.528677,36.8889034 134.761152,34.2021241 C136.251619,32.9213052 138.171209,31.9582342 140.303724,31.2113628 C142.439514,30.4644914 144.784952,30.1434677 147.23849,30.1434677 C150.546999,30.1434677 153.636033,30.5693154 156.515419,31.4242866 C159.398081,32.3873576 162.169367,33.9892003 164.835829,36.3379143 L159.611004,44.3504031 C157.546448,42.8715655 155.329177,41.6185162 152.997262,40.6127703 C151.180495,39.8237101 149.219178,39.4220753 147.23849,39.4334997 C145.852847,39.4334997 144.572028,39.6496993 143.612233,40.2917466 C142.544338,40.8256942 142.11849,41.7854894 142.11849,43.0695841 C142.11849,44.3471273 142.652438,45.2053743 143.717057,45.8441459 C144.784952,46.4861932 146.917466,47.1282406 149.796852,47.875112 C152.469866,48.5499168 155.10357,49.3688548 157.691414,50.3319258 C159.820653,51.1836212 161.530595,52.1466923 162.916238,53.1097633 C165.536839,55.0424568 166.987997,58.1871785 166.755419,61.44 C166.755419,65.8196801 165.156852,69.2362892 161.848343,71.8012028 C158.651209,74.3661164 154.382905,75.6472379 148.732233,75.6472379 L148.732233,75.6472379 Z M201.524248,72.5480742 C199.712758,73.2982214 197.580243,74.0450928 195.234805,74.6871401 C192.886091,75.3259117 190.540653,75.7550352 188.087115,75.7550352 C186.380448,75.7550352 184.886705,75.5421113 183.392962,75.1129878 C181.941696,74.6888358 180.59727,73.960791 179.448957,72.9771977 C178.381062,72.1222265 177.529367,70.8414075 176.887319,69.4524888 C176.165854,67.7278711 175.803602,65.8742596 175.8227,64.0049136 L175.8227,41.038618 L170.273576,41.038618 L170.273576,30.9984389 L175.924248,30.9984389 L175.924248,17.0011516 L189.148458,17.0011516 L189.148458,30.8903391 L198.107639,30.8903391 L198.107639,41.0353423 L189.148458,41.0353423 L189.148458,59.4090339 C189.148458,60.7979527 189.469482,61.8658477 190.216353,62.6127191 C190.963225,63.1466667 191.92302,63.4644146 192.990915,63.4644146 C194.055534,63.4644146 195.120154,63.3595905 196.083225,62.9337428 C197.147844,62.6127191 198.107639,62.2916955 198.854511,61.8658477 L201.416148,72.5447985 L201.520972,72.5447985 L201.524248,72.5480742 Z M226.482201,75.6469354 C223.08818,75.706565 219.716269,75.0896435 216.563225,73.8321689 C211.009938,71.6307506 206.662499,67.1605294 204.616558,61.5480998 C202.520598,55.9698872 202.520598,49.8205158 204.616558,44.2423033 C206.662499,38.6298737 211.009938,34.1596525 216.563225,31.9582342 C219.445886,30.785515 222.747844,30.1434677 226.482201,30.1434677 C232.977421,29.8381578 239.284292,32.3728623 243.761791,37.0880614 C245.786206,39.1157518 247.279949,41.5725656 248.347844,44.2423033 C250.530815,49.8405651 250.530815,56.054662 248.347844,61.6529239 C246.290243,67.197774 241.992941,71.6199283 236.509277,73.8354447 C233.32257,75.107131 229.912477,75.7243122 226.482201,75.6502111 L226.482201,75.6469354 Z M216.884248,53.0016635 C216.884248,56.4215483 217.735944,59.19611 219.55071,61.2270761 C221.470301,63.3628663 223.815739,64.4307614 226.590301,64.4307614 C229.269786,64.4820989 231.824697,63.3012374 233.521791,61.2270761 C234.373487,60.1591811 235.015534,59.091286 235.549482,57.5942674 C236.080154,56.2053487 236.293077,54.6035061 236.293077,53.0016635 C236.293077,49.4769546 235.333282,46.6991171 233.521791,44.6714267 C231.825346,42.5960413 229.270337,41.413927 226.590301,41.4644658 C223.918988,41.4589199 221.381358,42.632439 219.655534,44.6714267 C218.803839,45.7393218 218.056967,46.8072169 217.526296,48.3009597 C217.044586,49.8195133 216.82741,51.4095521 216.884248,53.0016635 L216.884248,53.0016635 Z M284.397492,42.4275368 C281.197083,42.4275368 278.209597,42.9614843 275.543135,44.0293794 C273.194301,44.8229422 271.195161,46.4097453 269.889187,48.5171593 L269.889187,74.900064 L256.556878,74.900064 L256.556878,30.9984389 L268.824568,30.9984389 L268.824568,39.7577991 C270.318311,36.7670377 272.237901,34.4183237 274.688164,32.8132054 C277.036878,31.103263 279.490416,30.2482917 282.156878,30.1434677 L283.542521,30.1434677 L284.394216,30.2482917 L284.394216,42.4275368 L284.397492,42.4275368 Z M290.261088,81.4155342 C292.115517,82.0610958 294.057263,82.4211694 296.019859,82.4834293 C297.621702,82.4834293 298.902521,81.9494818 299.862316,80.8783109 C300.714012,79.8136916 301.460883,77.6779015 302.207754,74.900064 L285.566935,30.9984389 L299.325093,30.9984389 L309.460269,63.3628663 L318.31135,30.9984389 L330.791964,30.9984389 L314.046321,81.9494818 C311.428498,90.5984482 302.619936,95.7987181 293.782521,93.9125272 C292.572335,93.6899161 291.391077,93.3316927 290.261088,92.8446321 L290.261088,81.4155342 L290.261088,81.4155342 Z M362.360384,75.6502111 C359.051875,75.6502111 356.07094,75.004888 353.614127,73.5111452 C351.121045,72.1386357 349.054739,70.1052 347.642431,67.6344466 L347.642431,74.900064 L336.016788,74.900064 L336.016788,13.8007422 L349.453922,13.8007422 L349.453922,38.1559565 C352.367084,33.0450432 357.865967,29.9622403 363.746027,30.1434677 C366.520589,30.1434677 369.078951,30.6774152 371.427665,31.9582342 C373.773103,33.0261292 375.692694,34.7360717 377.504184,36.7670377 C382.755172,44.0661563 384.184366,53.4418128 381.346641,61.9739475 C380.340529,64.6404596 378.858807,67.1022269 376.973512,69.2395649 C373.230714,73.3499061 367.919379,75.6787497 362.360384,75.6469354 L362.360384,75.6502111 Z M358.626027,64.4307756 C362.957833,64.4380042 366.815061,61.6905515 368.22398,57.5942674 C369.788232,53.2922021 369.022957,48.4875591 366.199565,44.8843506 C364.534009,42.6853809 361.918063,41.4145347 359.159974,41.4644658 C357.13556,41.4644658 355.215969,42.2146129 353.401203,43.6035317 C351.646539,45.1227481 350.260815,47.0215378 349.349098,49.1559309 L349.349098,58.3444146 C351.067184,61.9768568 354.715931,64.3023759 358.734127,64.3259373 L358.626027,64.4307756 L358.626027,64.4307756 Z M389.342751,13.8007422 L402.675061,13.8007422 L402.675061,59.1928343 C402.675061,62.6127191 404.06398,64.2145617 406.943365,64.2145617 C408.463314,64.2178375 409.966884,63.854229 411.316494,63.1466667 L413.127985,73.0820218 C409.393035,74.7196949 405.367288,75.5907889 401.289418,75.6436596 C397.450237,75.6436596 394.462751,74.5757646 392.438337,72.6528983 C390.302546,70.5171081 389.237927,67.7392706 389.237927,63.8935381 L389.237927,13.8007422 L389.342751,13.8007422 L389.342751,13.8007422 Z M438.298861,75.6469354 C434.90484,75.706565 431.53293,75.0896435 428.379885,73.8321689 C422.793362,71.6444497 418.407194,67.1748492 416.325118,61.5480998 C413.241381,53.153031 414.95728,43.7456869 420.806347,36.9799616 C422.940581,34.8301248 425.478825,33.1234894 428.275061,31.9582342 C431.151171,30.785515 434.45968,30.1434677 438.190761,30.1434677 C444.685982,29.8381578 450.992853,32.3728623 455.470352,37.0880614 C457.602866,39.1157518 458.988509,41.5725656 460.056404,44.2423033 C463.261658,52.6265176 461.534101,62.0977731 455.575176,68.8104415 C453.489839,71.0172002 450.93979,72.7325245 448.109738,73.8321689 C444.956693,75.0896435 441.584782,75.706565 438.190761,75.6469354 L438.298861,75.6469354 L438.298861,75.6469354 Z M428.592809,53.0016635 C428.592809,56.4215483 429.444504,59.19611 431.259271,61.2270761 C433.178861,63.3628663 435.524299,64.4307614 438.298861,64.4307614 C440.97508,64.4666496 443.523606,63.2887392 445.230352,61.2270761 C446.082047,60.1591811 446.724095,59.091286 447.258042,57.5942674 C447.79199,56.2053487 448.004914,54.6035061 448.004914,53.0016635 C448.004914,49.4769546 447.045118,46.6991171 445.230352,44.6714267 C443.533907,42.5960413 440.978898,41.413927 438.298861,41.4644658 C435.628693,41.459886 433.092456,42.6333155 431.36737,44.6714267 C430.515675,45.7393218 429.765528,46.8072169 429.23158,48.3009597 C428.700909,49.7979782 428.592809,51.291721 428.592809,53.0016635 L428.592809,53.0016635 Z M497.809443,74.900064 L486.4,57.1684197 L481.705848,62.0820473 L481.705848,74.900064 L468.373538,74.900064 L468.373538,13.8007422 L481.705848,13.8007422 L481.705848,49.1559309 L496.5319,30.9984389 L510.715905,30.9984389 L494.933333,49.9028023 L512,74.8967882 L497.812719,74.8967882 L497.809443,74.900064 Z" fill="#141A2F"></path>
        <path d="M87.7115291,0 L87.6132566,0.104824056 C90.1780766,0.104824056 91.7475173,2.09249139 91.8351059,4.52432576 L91.8389763,4.7400128 L91.8389763,87.449469 C91.8389763,90.0033642 90.3481453,91.5654255 87.9459397,91.6577507 L87.7180806,91.6620857 L32.1285733,91.6620857 L16.9094306,108.099808 L16.9094306,91.5572617 L4.6515675,91.5572617 C2.18752776,91.5572617 0.124654256,90.0698607 0.00544027824,87.667129 L0,87.4461932 L0,4.63518874 C0,2.17655506 1.99710907,0.117343191 4.53735957,0.00483962553 L4.75639155,0 L87.7115291,0 Z M59.3959309,16.8570186 L16.9094306,16.8570186 L16.9094306,75.8598592 L54.3250672,75.8598592 C57.178247,75.8598592 59.9266027,75.3324632 62.4620345,74.7002431 C64.831495,74.2110642 66.9213081,73.1654442 68.8220265,72.002829 L69.2264619,71.7520665 C70.9977075,70.6943345 72.4840947,69.2237784 73.5602133,67.4684308 L73.7699296,67.113602 L73.6618298,67.113602 C74.7166219,65.2202175 75.2472937,63.0058093 75.2472937,60.3721049 C75.2472937,56.2643122 74.2940499,52.995112 72.3908381,50.4662316 C70.3860781,48.0454511 67.7425464,46.3584389 64.3619706,45.4117466 C67.0457581,44.2679698 69.2748163,42.2670013 70.7005502,39.7217658 C72.076366,37.1928855 72.8166859,34.5591811 72.8166859,31.8206526 C72.8631118,28.0964487 71.590139,24.4759608 69.2231862,21.6003071 C68.0602943,20.2277671 66.5796545,19.0714267 64.9974664,18.2262828 C63.416807,17.3427033 61.7476877,16.9156909 59.8143303,16.8626829 L59.3959309,16.8570186 Z M53.3226871,49.8340115 C54.5445425,49.8340115 55.461753,50.4301983 56.2774152,51.4293026 C57.0324913,52.4705522 57.4259621,53.7303491 57.3977223,55.0162508 C57.3977223,56.5099936 56.8867051,57.705643 56.0743186,58.5049264 C55.2226232,59.2440764 54.1958087,59.7261969 53.0751805,59.7913001 L52.8149456,59.7988484 L32.144952,59.7988484 L32.144952,49.8340115 L53.3226871,49.8340115 Z M51.5930902,29.9010621 C52.5652026,29.9104103 53.5027104,30.263136 54.2398976,30.8968906 C54.9540115,31.5946257 55.3602047,32.6920026 55.3602047,34.1857454 C55.3602047,35.7852222 54.9978904,37.0311503 54.1849558,37.6668905 L54.036801,37.7726935 C53.2838821,38.3260436 52.3579104,38.7928673 51.4212034,38.8614121 L51.186897,38.8700704 L32.1416763,38.8700704 L32.1416763,29.9010621 L51.5930902,29.9010621 Z" fill="#0AB3AF"></path>
    </g>
</svg>

<svg preserveAspectRatio="xMidYMid" viewBox="0 0 512 109" xmlns="http://www.w3.org/2000/svg">
  <path fill="#141A2F" d="M148.732 75.647a35.223 35.223 0 0 1-10.987-1.71 25.056 25.056 0 0 1-9.172-5.34l4.8-8.117a43.567 43.567 0 0 0 7.786 4.272 18.013 18.013 0 0 0 7.252 1.497c1.704 0 3.093-.321 4.052-.963.96-.534 1.386-1.494 1.386-2.67 0-1.068-.53-2.136-1.812-2.778a27.7 27.7 0 0 0-6.292-2.136l-7.469-2.456c-2.024-.855-3.623-1.71-4.904-2.67a7.862 7.862 0 0 1-2.771-3.207 10.482 10.482 0 0 1-.852-4.272 13.896 13.896 0 0 1 5.012-10.895c1.49-1.28 3.41-2.244 5.543-2.99 2.136-.748 4.481-1.069 6.934-1.069 3.309 0 6.398.426 9.277 1.281 2.883.963 5.654 2.565 8.32 4.914l-5.224 8.012a35.503 35.503 0 0 0-6.614-3.737 14.25 14.25 0 0 0-5.759-1.18c-1.385 0-2.666.217-3.626.859-1.068.534-1.494 1.493-1.494 2.778 0 1.277.534 2.135 1.6 2.774 1.067.642 3.2 1.284 6.079 2.031a75.872 75.872 0 0 1 7.894 2.457c2.13.852 3.84 1.815 5.225 2.778a9.51 9.51 0 0 1 3.84 8.33c0 4.38-1.6 7.796-4.908 10.361-3.197 2.565-7.465 3.846-13.116 3.846Zm52.792-3.099a53.537 53.537 0 0 1-6.29 2.14c-2.348.638-4.693 1.067-7.147 1.067-1.707 0-3.2-.213-4.694-.642a10.66 10.66 0 0 1-3.944-2.136c-1.068-.855-1.92-2.136-2.562-3.525a13.752 13.752 0 0 1-1.064-5.447V41.039h-5.55v-10.04h5.651V17h13.224v13.89h8.96v10.144h-8.96V59.41c0 1.389.321 2.457 1.068 3.204.747.534 1.707.851 2.775.851 1.065 0 2.13-.104 3.092-.53 1.065-.321 2.025-.642 2.772-1.068l2.561 10.679h.105l.003.003Zm24.958 3.099a25.564 25.564 0 0 1-9.919-1.815 20.922 20.922 0 0 1-11.946-12.284 24.6 24.6 0 0 1 0-17.306 20.922 20.922 0 0 1 11.946-12.284c2.883-1.172 6.185-1.815 9.92-1.815a22.38 22.38 0 0 1 17.279 6.945c2.024 2.028 3.518 4.485 4.586 7.154a23.962 23.962 0 0 1 0 17.41 21.03 21.03 0 0 1-11.839 12.183 25.564 25.564 0 0 1-10.027 1.815v-.003Zm-9.598-22.645c0 3.42.852 6.194 2.667 8.225 1.92 2.136 4.265 3.204 7.04 3.204a8.74 8.74 0 0 0 6.93-3.204 11.93 11.93 0 0 0 2.028-3.633c.531-1.389.744-2.99.744-4.592 0-3.525-.96-6.303-2.771-8.33a8.74 8.74 0 0 0-6.932-3.208 9.06 9.06 0 0 0-6.934 3.207c-.852 1.068-1.599 2.136-2.13 3.63a13.906 13.906 0 0 0-.642 4.7Zm67.513-10.574c-3.2 0-6.187.533-8.854 1.601a10.67 10.67 0 0 0-5.654 4.488V74.9h-13.332V30.998h12.268v8.76c1.493-2.991 3.413-5.34 5.863-6.945 2.349-1.71 4.802-2.565 7.469-2.67h1.386l.851.105v12.18h.003Zm5.864 38.988a19.386 19.386 0 0 0 5.759 1.067c1.602 0 2.883-.534 3.842-1.605.852-1.064 1.599-3.2 2.346-5.978l-16.641-43.902h13.758l10.135 32.365 8.851-32.365h12.481L314.046 81.95c-2.618 8.65-11.426 13.85-20.263 11.964a16.385 16.385 0 0 1-3.522-1.068v-11.43Zm72.1-5.766c-3.31 0-6.29-.645-8.747-2.139a15.475 15.475 0 0 1-5.972-5.877V74.9h-11.625V13.8h13.437v24.356a15.887 15.887 0 0 1 14.292-8.013c2.775 0 5.333.534 7.682 1.815 2.345 1.068 4.265 2.778 6.076 4.809a28.02 28.02 0 0 1 3.843 25.207 23.553 23.553 0 0 1-4.373 7.266 19.612 19.612 0 0 1-14.614 6.407v.003Zm-3.735-11.22a10.132 10.132 0 0 0 9.598-6.836 13.26 13.26 0 0 0-2.024-12.71 8.635 8.635 0 0 0-7.04-3.42c-2.024 0-3.944.75-5.759 2.14a15.288 15.288 0 0 0-4.052 5.552v9.188a10.45 10.45 0 0 0 9.385 5.982l-.108.105Zm30.717-50.63h13.332v45.393c0 3.42 1.389 5.022 4.268 5.022a9.378 9.378 0 0 0 4.373-1.068l1.812 9.935a30.464 30.464 0 0 1-11.839 2.562c-3.839 0-6.826-1.068-8.85-2.991-2.136-2.136-3.201-4.914-3.201-8.76V13.802h.105Zm48.956 61.847a25.564 25.564 0 0 1-9.92-1.815 21.03 21.03 0 0 1-12.054-12.284 24.598 24.598 0 0 1 4.481-24.568 22.98 22.98 0 0 1 7.47-5.022c2.875-1.172 6.184-1.815 9.915-1.815a22.38 22.38 0 0 1 17.28 6.945c2.132 2.028 3.518 4.485 4.585 7.154a24.064 24.064 0 0 1-4.48 24.568 20.473 20.473 0 0 1-7.466 5.022 25.564 25.564 0 0 1-9.92 1.815h.109Zm-9.706-22.645c0 3.42.852 6.194 2.666 8.225 1.92 2.136 4.265 3.204 7.04 3.204a8.845 8.845 0 0 0 6.931-3.204 11.93 11.93 0 0 0 2.028-3.633c.534-1.389.747-2.99.747-4.592 0-3.525-.96-6.303-2.775-8.33a8.74 8.74 0 0 0-6.931-3.208 9.06 9.06 0 0 0-6.932 3.207c-.851 1.068-1.601 2.136-2.135 3.63-.531 1.497-.64 2.99-.64 4.7ZM497.809 74.9 486.4 57.168l-4.694 4.914V74.9h-13.332V13.8h13.332v35.356l14.826-18.158h14.184l-15.783 18.905L512 74.897h-14.187l-.004.003Z"/>
  <path fill="#0AB3AF" d="m87.712 0-.099.105c2.565 0 4.135 1.987 4.222 4.42l.004.215v82.71c0 2.553-1.49 4.115-3.893 4.208l-.228.004h-55.59L16.91 108.1V91.557H4.652c-2.464 0-4.527-1.487-4.647-3.89L0 87.447V4.634C0 2.177 1.997.117 4.537.005L4.757 0h82.955ZM59.396 16.857H16.909V75.86h37.416c2.853 0 5.602-.528 8.137-1.16 2.37-.489 4.46-1.535 6.36-2.697l.404-.25a12.753 12.753 0 0 0 4.334-4.285l.21-.354h-.108c1.055-1.894 1.585-4.108 1.585-6.742 0-4.108-.953-7.377-2.856-9.906-2.005-2.42-4.648-4.108-8.029-5.054a13.195 13.195 0 0 0 6.339-5.69c1.375-2.53 2.116-5.163 2.116-7.901a15.773 15.773 0 0 0-3.594-10.22c-1.163-1.373-2.643-2.53-4.226-3.375-1.58-.883-3.25-1.31-5.183-1.363l-.418-.006Zm-6.073 32.977c1.222 0 2.139.596 2.954 1.595a5.89 5.89 0 0 1 1.12 3.587c0 1.494-.51 2.69-1.323 3.489-.851.74-1.878 1.221-2.999 1.286l-.26.008h-20.67v-9.965h21.178Zm-1.73-19.933a4.12 4.12 0 0 1 2.647.996c.714.698 1.12 1.795 1.12 3.289 0 1.6-.362 2.845-1.175 3.48l-.148.107c-.753.553-1.68 1.02-2.616 1.088l-.234.01H32.142V29.9h19.451Z"/>
</svg>
